icon-themes/breeze_svg/cmd/de/lc_italic.svg

<svg viewBox="0 0 24 24" xmlns="http://www.w3.org/2000/svg"><path d="m8 3-2 17h3l.4804688-5.679688 8.5195312 5.679688h1v-1.431455l-9-6.065181 9-7.503364v-2h-1l-7.875 7 .875-7z" fill="#4d4d4d"/></svg>

<svg xmlns="http://www.w3.org/2000/svg" viewBox="0 0 24 24">
  <path
     style="fill:#4d4d4d"
     d="M 8,3 6,20 H 9 L 9.4804688,14.320312 18,20 h 1 V 18.568545 L 10,12.503364 19,5 V 3 H 18 L 10.125,10 11,3 Z"
     />
</svg>
